static/img/kroki/10a45c9cfe0dc0a4e6ed35093e0b7f5d.svg

<?xml version="1.0" encoding="us-ascii" standalone="no"?><svg xmlns="http://www.w3.org/2000/svg" xmlns:xlink="http://www.w3.org/1999/xlink" contentStyleType="text/css" height="152px" preserveAspectRatio="none" style="width:306px;height:152px;" version="1.1" viewBox="0 0 306 152" width="306px" zoomAndPan="magnify"><defs/><g><!--class aws_sns_endpoint--><g id="elem_aws_sns_endpoint"><rect codeLine="23" fill="#3D176E" height="39.7891" id="aws_sns_endpoint" rx="2.5" ry="2.5" style="stroke:#000D19;stroke-width:0.5;" width="194" x="56" y="106.79"/><ellipse cx="71" cy="126.6845" fill="#ADD1B2" rx="11" ry="11" style="stroke:#181818;stroke-width:1.0;"/><path d="M73.9688,132.3252 Q73.3906,132.622 72.75,132.7627 Q72.1094,132.9189 71.4063,132.9189 Q68.9063,132.9189 67.5781,131.2783 Q66.2656,129.622 66.2656,126.497 Q66.2656,123.372 67.5781,121.7158 Q68.9063,120.0595 71.4063,120.0595 Q72.1094,120.0595 72.75,120.2158 Q73.4063,120.372 73.9688,120.6689 L73.9688,123.3877 Q73.3438,122.8095 72.75,122.5439 Q72.1563,122.2627 71.5313,122.2627 Q70.1875,122.2627 69.5,123.3408 Q68.8125,124.4033 68.8125,126.497 Q68.8125,128.5908 69.5,129.6689 Q70.1875,130.7314 71.5313,130.7314 Q72.1563,130.7314 72.75,130.4658 Q73.3438,130.1845 73.9688,129.6064 L73.9688,132.3252 Z " fill="#000000"/><text fill="#D9B8FF" font-family="Helvetica" font-size="17" lengthAdjust="spacing" textLength="152" x="90" y="132.5698">aws_sns_endpoint</text></g><!--class aws_sns_platform_application--><g id="elem_aws_sns_platform_application"><rect codeLine="26" fill="#3D176E" height="39.7891" id="aws_sns_platform_application" rx="2.5" ry="2.5" style="stroke:#000D19;stroke-width:0.5;" width="292" x="7" y="7"/><ellipse cx="22" cy="26.8945" fill="#ADD1B2" rx="11" ry="11" style="stroke:#181818;stroke-width:1.0;"/><path d="M24.9688,32.5352 Q24.3906,32.832 23.75,32.9727 Q23.1094,33.1289 22.4063,33.1289 Q19.9063,33.1289 18.5781,31.4883 Q17.2656,29.832 17.2656,26.707 Q17.2656,23.582 18.5781,21.9258 Q19.9063,20.2695 22.4063,20.2695 Q23.1094,20.2695 23.75,20.4258 Q24.4063,20.582 24.9688,20.8789 L24.9688,23.5977 Q24.3438,23.0195 23.75,22.7539 Q23.1563,22.4727 22.5313,22.4727 Q21.1875,22.4727 20.5,23.5508 Q19.8125,24.6133 19.8125,26.707 Q19.8125,28.8008 20.5,29.8789 Q21.1875,30.9414 22.5313,30.9414 Q23.1563,30.9414 23.75,30.6758 Q24.3438,30.3945 24.9688,29.8164 L24.9688,32.5352 Z " fill="#000000"/><text fill="#D9B8FF" font-family="Helvetica" font-size="17" lengthAdjust="spacing" textLength="250" x="41" y="32.7798">aws_sns_platform_application</text></g><!--link aws_sns_platform_application to aws_sns_endpoint--><g id="link_aws_sns_platform_application_aws_sns_endpoint"><path codeLine="29" d="M153,47.22 C153,64.36 153,83.27 153,100.41 " fill="none" id="aws_sns_platform_application-to-aws_sns_endpoint" style="stroke:#1A83AF;stroke-width:2.0;"/><polygon fill="#1A83AF" points="153,106.41,157,97.41,153,101.41,149,97.41,153,106.41" style="stroke:#1A83AF;stroke-width:2.0;"/></g><!--SRC=[XT31IiD040RWUvvYeUT2Oj0s5o46YbwAM6yYOPgTRPSckylir5B5TxUnAclIfjVzFtR-cRMMAB1nl1SDDaia7_cDDWu86f4JsLrXQqjYf1IeTD8DPzRmHJ271iKzrc_8keAkU5xhQcFGUt4LH7TGRLPajqOUlsS2umyH6WvKKOFtEJFfvPOnA2EpvLIfhkn-EafbChd17hCaaNv87CSooRhaugZ1lV_4Gh-ZICAZpIrZhsPlnBSQRDcAe6HlqT_yRCT7a5ARbRWEtfwEdSWW_NjVh47QNQiLr3uSuna9BUyT5hsjC9jADJc97yxXg6fF9s3dIszyYKOwgmsBZoZwx6Ik1bQMcXASgm-xiRRcw0R5-6MKvDCqdxsERtjpeYy0]--></g></svg>

<svg xmlns="http://www.w3.org/2000/svg" width="306" height="152" viewBox="0 0 306 152"><rect width="194" height="39.789" x="56" y="106.79" fill="#3D176E" rx="2.5" ry="2.5" style="stroke:#000d19;stroke-width:.5"/><circle cx="71" cy="126.684" r="11" fill="#ADD1B2" style="stroke:#181818;stroke-width:1"/><path d="M73.969 132.325q-.578.297-1.219.438-.64.156-1.344.156-2.5 0-3.828-1.64-1.312-1.657-1.312-4.782t1.312-4.781q1.328-1.656 3.828-1.656.703 0 1.344.156.656.156 1.219.453v2.719q-.625-.579-1.219-.844-.594-.281-1.219-.281-1.344 0-2.031 1.078-.687 1.062-.687 3.156t.687 3.172q.688 1.062 2.031 1.062.625 0 1.219-.265.594-.281 1.219-.86z"/><text x="90" y="132.57" fill="#D9B8FF" font-family="Helvetica" font-size="17" textLength="152">aws_sns_endpoint</text><rect width="292" height="39.789" x="7" y="7" fill="#3D176E" rx="2.5" ry="2.5" style="stroke:#000d19;stroke-width:.5"/><circle cx="22" cy="26.895" r="11" fill="#ADD1B2" style="stroke:#181818;stroke-width:1"/><path d="M24.969 32.535q-.578.297-1.219.438-.64.156-1.344.156-2.5 0-3.828-1.64-1.312-1.657-1.312-4.782t1.312-4.781q1.328-1.656 3.828-1.656.703 0 1.344.156.656.156 1.219.453v2.719q-.625-.578-1.219-.844-.594-.281-1.219-.281-1.343 0-2.031 1.078-.687 1.062-.687 3.156t.687 3.172q.688 1.062 2.031 1.062.625 0 1.219-.265.594-.281 1.219-.86z"/><text x="41" y="32.78" fill="#D9B8FF" font-family="Helvetica" font-size="17" textLength="250">aws_sns_platform_application</text><path fill="none" d="M153 47.22v53.19" style="stroke:#1a83af;stroke-width:2"/><path fill="#1A83AF" d="m153 106.41 4-9-4 4-4-4z" style="stroke:#1a83af;stroke-width:2"/></svg>
